X:21
T:Oyster girl
M:6/8
L:1/8
R:Jig
Z:Steve Mansfield Dec 2000
K:G
d |ded B2 G | A2 F D2 D | G2 G BGB | d2 c ABc | ded B2 g | 
f2 e c2 e | ded cAF | G3 G2 :: A | Bcd Bcd | e2 c e2 c | 
ABc ABc | d2 B dBc | ded B2 g | f2 e c2 e | ded cAF | G3 G2 :|

